X: 1
T: Lyavo horo
O: Strandzha, S.E. Thrace
%%musicspace 0.20cm
L: 1/8
M: 9/8
Z: John Chambers <jc@trillian.mit.edu>
P: A BC BD BC BD
K: C
"A"\
|: "C"~E2- EG {E}F2 FEC | "Dm"~D2- DC EF ~E2C | "C"~E2- EG .F2 ~E2C |1 "G7".D2 GA ~G2 FED :|2 "Dm"D2- DA, .D2 ~D3 ||
"B"\
| "C"E4 {F}G2 (~F2E) | "G7"D2 D2 (DE) (~D2C) | "Am"E2- E2 "C"{F}G2 (~E2C) | "Dm"D4 D2- D3 |
w: 1.~Dra-ga-no* Dra-gan-ko,* m\`u-ri, is-*lya-zi* na-vun,*
